!!!COM: Scriabin, Alexander
!!!OTL@@FR: Mazurka en si mineur
!!!OTL@@EN: Mazurka in B Minor
!!!OPR@@FR: 10 Mazurkas
!!!OPR@@EN: 10 Mazurkas
!!!OPS: 3
!!!ONM: 1
!!!ODT: 1888–1889
!!!AGN: Mazurka
**kern	**kern	**dynam
*staff2	*staff1	*staff1/2
*Ipiano	*Ipiano	*
*clefF4	*clefG2	*
*k[f#c#]	*k[f#c#]	*
*b:	*b:	*
*M3/4	*M3/4	*
=1	=1	=1
*^	*	*
4BB	4rc	12bL	.
.	.	12cc#	.
.	.	12ddJ	.
8qBB\	.	.	.
4G 4A#X 4c#	8f#L	4cc#	.
.	8eJ	.	.
4F# 4B 4d	4rc	8.bL	.
.	.	16f#Jk	.
*v	*v	*	*
=2	=2	=2
.	8qa/	.
4BBB 4BB	8.gL	.
.	16dJk	.
4D 4G 4d	2g	.
4D 4G 4d	.	.
=3	=3	=3
4BBB 4BB	12f#L	.
.	12g	.
.	12f#J	.
4BB 4G 4A#X	12f#L	.
.	12e	.
.	12BJ	.
4BB 4F# 4B	4d	.
=4	=4	=4
4BBB 4BB	8.cnL	.
.	16GJk	.
4E 4e	4.c	.
4E 4e	.	.
.	8B	.
=5	=5	=5
4BB	4A#X	.
.	16qqc#X/LL	.
.	16qqe/	.
.	16qqg/	.
.	16qqa#X/	.
.	16qqcc#/JJ	.
4G 4A#X 4c# 4e	4.ff#	.
4G 4A# 4c# 4e	.	.
.	8ee	.
=6	=6	=6
4BB	24ddLL	.
.	24cc#	.
.	24b	.
.	24cc#	.
.	[24dd	.
.	[24bJJ 24dd_	.
4F# 4B 4d	2f# 2b] 2dd]	.
4F# 4B 4d	.	.
=7	=7	=7
2G 2B 2e	12bL 12ee	.
.	12dd	.
.	12cc#J	.
.	12bL	.
.	12a#X	.
.	12bJ	.
4C# 4G 4B 4e#X	24cc#LL	.
.	24b	.
.	24cc#	.
.	24cc#J	.
.	12ccc#J	.
=8	=8	=8
*	*^	*
4F# 4c# 4en	8a#XL	12ccc#L	.
.	.	12aa#X	.
.	8bJ	.	.
.	.	12ggJ	.
4FFF# 4FF#	4a#	4ff#	.
4C# 4E 4F# 4A#X	4rc	4f#	.
*	*v	*v	*
=9	=9	=9
*^	*	*
4BB	4rc	12bL	.
.	.	12cc#	.
.	.	12ddJ	.
8qBB\	.	.	.
4G 4A#X 4c#	8f#L	4cc#	.
.	8eJ	.	.
4F# 4B 4d	4rc	8.bL	.
.	.	16f#Jk	.
*v	*v	*	*
=10	=10	=10
.	8qa/	.
4BBB 4BB	8.gL	.
.	16dJk	.
4D 4G 4d	2g	.
4D 4G 4d	.	.
=11	=11	=11
4BBB 4BB	12f#L	.
.	12g	.
.	12f#J	.
4BB 4G 4A#X	12f#L	.
.	12e	.
.	12BJ	.
4BB 4F# 4B	4d	.
=12	=12	=12
4BBB 4BB	8.cnL	.
.	16F#Jk	.
4D#X 4An 4d#X	4.c	.
4D# 4A 4d#	.	.
.	8B	.
=13	=13	=13
*	*^	*
*	*	*^	*
4EE 4E	4r	4rc	12A#XL	.
.	.	.	12B	.
.	.	.	12eJ	.
2CC#X 2C#X	[4b\	12rc	12f#L	.
.	.	[6g	12g	.
.	.	.	[12eJ	.
.	4b\]	4g]	[4B 4e]	.
*	*v	*v	*	*
*	*v	*v	*
=14	=14	=14
2DD 2D	12BL]	.
.	12e#X	.
.	12f#J	.
.	12cc#L	.
.	12b	.
.	[12ff#J	.
4DD#X 4D#X	[4an 4ff#] 4bb	.
=15	=15	=15
*	*^	*
4EE 4E	4rc	12aL]	.
.	.	12g	.
.	.	12f#J	.
4GGG 4GG	4b	12enL	.
.	.	12d#X	.
.	.	12eJ	.
4AAA [4AA	4G 4c# 4a	8.f#L	.
.	.	16eJk	.
*	*v	*v	*
=16	=16	=16
4DD 4AA]	4F# 4dn	.
4F# 4A 4f#	4d 4a 4ff#	.
4r	4r	.
=17	=17	=17
12DL	2.r	.
12E	.	.
12FnJ	.	.
4E	.	.
8DL	.	.
8AAJ	.	.
=18	=18	=18
*^	*^	*
8.BB-XL	2.G#X	2.d	12b-XL	.
.	.	.	12ccn	.
.	.	.	12ddJ	.
16FFnJk	.	.	.	.
2BB-	.	.	4cc	.
.	.	.	8.b-L	.
.	.	.	16fnJk	.
*v	*v	*	*	*
=19	=19	=19	=19
8AAL 8A	2d	8fnL	.
8GGnJ 8Gn	.	8g	.
4FFn 4Fn	.	8a	.
.	.	8a#XJ	.
4FF 4BBn 4An	4d#X	6B 6b	.
.	.	12A 12an	.
=20	=20	=20	=20
*^	*	*	*
4BB	8FFnL 8Fn	8AL 8d#X	8aL	.
.	8EEJ 8E	8G#XJ 8e	8g#X	.
2E	4fn	2dn 2g#	8a#X	.
.	.	.	8bJ	.
.	4e	.	4ee	.
*v	*v	*	*	*
*	*v	*v	*
=21	=21	=21
12AL	2.r	.
12B	.	.
12cnJ	.	.
4B	.	.
8AL	.	.
8EJ	.	.
=22	=22	=22
*^	*^	*
8.FnL	2.d#X	2.a	12ffnL	.
.	.	.	12gg	.
.	.	.	12aaJ	.
16CnJk	.	.	.	.
2F	.	.	4gg	.
.	.	.	8.ffL	.
.	.	.	16ccnJk	.
*v	*v	*	*	*
=23	=23	=23	=23
8EL 8e	2a	8ccnL	.
8DnJ 8dn	.	8dd	.
4Cn 4cn	.	8ee	.
.	.	8ee#XJ	.
4C 4F#X 4en	4a#X	8f#L 8ff#	.
.	.	8eJ 8een	.
=24	=24	=24	=24
2.BB 2.Fn 2.B	8anL	2.d 2.dd	.
.	8ccn	.	.
.	8cc	.	.
.	8b	.	.
.	8b	.	.
.	8aJ	.	.
=25	=25	=25	=25
2BB 2E 2B	2g#X	8dL 8dd	.
.	.	8c#X 8cc#X	.
.	.	8d 8dd	.
.	.	8d#X 8dd#X	.
4BB-X 4E 4dn	4g#	8e 8ee	.
.	.	8dnJ 8ddn	.
=26	=26	=26	=26
2.AA 2.E-X 2.A	8gnL	2.cn 2.ccn	.
.	8b-X	.	.
.	8b-	.	.
.	8a	.	.
.	8a	.	.
.	8gJ	.	.
=27	=27	=27	=27
2AA 2D 2A	2f#	8cnL 8ccn	.
.	.	8Bn 8bn	.
.	.	8c 8cc	.
.	.	8c#X 8cc#X	.
4AA-X 4D 4cn	4f#	8d 8dd	.
.	.	8cnJ 8ccn	.
=28	=28	=28	=28
*^	*	*	*
[2GG [2D [2B	2rc	8rc	8e#XL 8b	.
.	.	4e#	8e# 8cc#X	.
.	.	.	8b 8dd	.
.	.	4b	8bJ 8een	.
8GG] 8D] 8B]	8rc	.	8ddL 8ee#X	.
[8FF# [8D	[8B	8rc	8ddJ	.
=29	=29	=29	=29	=29
8FF#] 8D]	8B]	8ff#L	4ff#	.
2G 2g	4c#	8b	.	.
.	.	8een	4een	.
.	4d	8g	.	.
.	.	8dd	8ddL	.
[8FF# [8E	[8cn	8ccJ	8ccnJ	.
=30	=30	=30	=30	=30
8FF#] 8E]	8c]	8eeL	4ee	.
2G 2g	4d	8g	.	.
.	.	8dd	4dd	.
.	4e	8eJ	.	.
.	.	8ccL	8ccnL	.
[8FF#	8rc	[8c#XJ	[8bJ	.
=31	=31	=31	=31	=31
2.FF#]	8.GL	2.c#]	8bL]	.
.	.	.	8b-XJ	.
.	16C#Jk	.	.	.
.	2G	.	8.aL	.
.	.	.	16eJk	.
.	.	.	8aL	.
.	.	.	[8gJ	.
=32	=32	=32	=32	=32
2.FF#	8.EL	8dL	2g]	.
.	.	8c#J	.	.
.	16BBJk	.	.	.
.	8EL	4B	.	.
.	8DJ	.	.	.
.	4C#	4A#X	4f#	.
*v	*v	*	*	*
*	*v	*v	*
=33	=33	=33
4BB	12bL	.
.	12cc#	.
.	12ddJ	.
8qBB/	.	.
4G 4A#X 4e	4cc#	.
4F# 4B 4d	8.bL	.
.	16f#Jk	.
=34	=34	=34
.	8qa/	.
4BBB 4BB	8.gL	.
.	16dJk	.
4D 4G 4d	2g	.
4D 4G 4d	.	.
=35	=35	=35
4BBB 4BB	12f#L	.
.	12g	.
.	12f#J	.
4BB 4G 4A#X	12f#L	.
.	12e	.
.	12BJ	.
4BB 4F# 4B	4d	.
=36	=36	=36
4BBB 4BB	8.cnL	.
.	16GJk	.
4E 4e	4.c	.
4E 4e	.	.
.	8B	.
=37	=37	=37
4BB	4A#X	.
.	16qqc#X/LL	.
.	16qqe/	.
.	16qqg/	.
.	16qqa#X/	.
.	16qqcc#/JJ	.
4G 4A#X 4c# 4e	4.ff#	.
4G 4A# 4c# 4e	.	.
.	8ee	.
=38	=38	=38
4BB	24ddLL	.
.	24cc#	.
.	24b	.
.	24cc#	.
.	[24dd	.
.	[24bJJ 24dd_	.
4F# 4B 4d	2f# 2b] 2dd]	.
4F# 4B 4d	.	.
=39	=39	=39
4G 4B 4e	12bL 12ee	.
.	12dd	.
.	12cc#J	.
4r	12bL	.
.	12a#X	.
.	12bJ	.
4C# 4G 4B 4e#X	24cc#LL	.
.	24b	.
.	24cc#	.
.	24cc#J	.
.	12ccc#J	.
=40	=40	=40
4F# 4A#X 4f#	12ccc#L	.
.	12aa#X	.
.	12ggJ	.
4FFF# 4FF#	4ff#	.
4C# 4E 4F# 4A#	4f#	.
=41	=41	=41
4BB	12bL	.
.	12cc#	.
.	12ddJ	.
8qBB/	.	.
4G 4A#X 4e	4cc#	.
4F# 4B 4d	8.bL	.
.	16f#Jk	.
=42	=42	=42
.	8qa/	.
4BBB 4BB	8.gL	.
.	16dJk	.
4D 4G 4d	2g	.
4D 4G 4d	.	.
=43	=43	=43
4BBB 4BB	12f#L	.
.	12g	.
.	12f#J	.
4BB 4G 4A#X	12f#L	.
.	12e	.
.	12BJ	.
4BB 4F# 4B	4d	.
=44	=44	=44
4BBB 4BB	8.cnL	.
.	16F#Jk	.
4D#X 4An 4d#X	4.c	.
4D# 4A 4d#	.	.
.	8B	.
=45	=45	=45
*	*^	*
*	*	*^	*
*	*	*	*^	*
4EE 4E	4r	4r	4rc	12A#XL	.
.	.	.	.	12B	.
.	.	.	.	12eJ	.
2CC# 2C#	4r	[4b\	12rc	12f#L	.
.	.	.	[6g	12g	.
.	.	.	.	[12eJ	.
.	[4B/	8b\]	8g]	8e]	.
.	.	8r	8rc	8raa	.
*	*	*	*v	*v	*
*	*	*v	*v	*
*	*v	*v	*
=46	=46	=46
2DD 2D	12BL]	.
.	12e#X	.
.	12f#J	.
.	12cc#L	.
.	12b	.
.	[12ff#J	.
4DD#X 4D#X	[4an 4ff#] 4bb	.
=47	=47	=47
*	*^	*
4EE 4E	12aL]	4r	.
.	12g	.	.
.	12f#J	.	.
4..GG 4..G	12bL	2e	.
.	12a#X	.	.
.	12bJ	.	.
.	4a# 4cc#	.	.
16FF# 16F#	.	.	.
*	*v	*v	*
=48	=48	=48
4BBB 4BB	4d 4b	.
2BB 2F# 2B	2b 2dd 2bb	.
=49||	=49||	=49||
*k[f#]	*k[f#]	*
4GGG 4GG	4r	.
4.D 4.B	4.d 4.g 4.dd	.
8D 8G	8d 8g 8b	.
=50	=50	=50
*^	*^	*
4D 4B	4rc	4rc	4d 4g 4dd	.
2D 2E-X 2G	4B	2e-X 2g	4b	.
.	4c	.	4cc	.
*v	*v	*	*	*
*	*v	*v	*
=51	=51	=51
4GGG 4GG	4r	.
4.D 4.B	4.d 4.g 4.dd	.
8D 8G	8d 8g 8b	.
=52	=52	=52
*^	*^	*
4D 4B	4rc	4rc	4d 4g 4dd	.
2D 2E-X 2G	4B	2e-X 2g	4b	.
.	4c	.	4cc	.
*v	*v	*	*	*
*	*v	*v	*
=53	=53	=53
4GGG 4GG	4r	.
4D 4B	4d 4g 4dd	.
4D 4G	4d 4g 4b	.
=54	=54	=54
2D 2c	2e 2g 2ee	.
4D 4B	4d 4g 4dd	.
=55	=55	=55
4D 4A	4e 4g 4cc	.
4D 4B	4e 4g 4b	.
4D 4c	4e 4g 4a	.
=56	=56	=56
2D 2c	4e 4g 4a	.
.	2d 2f# 2dd	.
4DD 4D	.	.
=57	=57	=57
4GGG 4GG	4r	.
4.D 4.B	4.d 4.g 4.dd	.
8D 8G	8d 8g 8b	.
=58	=58	=58
*^	*^	*
4D 4B	4rc	4rc	4d 4g 4dd	.
2D 2E-X 2G	4B	2e-X 2g	4b	.
.	4c	.	4cc	.
*v	*v	*	*	*
*	*v	*v	*
=59	=59	=59
4GGG 4GG	4r	.
4.D 4.B	4.d 4.g 4.dd	.
8D 8G	8d 8g 8b	.
=60	=60	=60
*^	*^	*
4D 4B	4rc	4rc	4d 4g 4dd	.
2D 2E-X 2G	4B	2e-X 2g	4b	.
.	4c	.	4cc	.
*v	*v	*	*	*
*	*v	*v	*
=61	=61	=61
4GGG 4GG	4r	.
4D 4B	4d 4g 4dd	.
4D 4B	4d 4g 4b	.
=62	=62	=62
2C#X 2B	2e 2b 2ee	.
4C# 4B	4e#X 4b 4ee#X	.
=63	=63	=63
4FF# 4C#X 4B	4f# 4b 4ff#	.
4E 4A#X	4d 4f# 4dd	.
4E 4A#	4c#X 4f# 4cc#X	.
=64	=64	=64
*	*^	*
2D 2d	2f#	4A#X 4a#X	.
.	.	4B 4b	.
4C#X	4rc	4raa	.
*	*v	*v	*
=65	=65	=65
4BB	4r	.
4.F# 4.f#	2d 2b 2dd	.
8BB	.	.
=66	=66	=66
4AA	4r	.
4.Fn 4.fn	2d 2b 2dd	.
8AA	.	.
=67	=67	=67
8GG#XL	4r	.
8D#X	.	.
8E	4r	.
8FnJ	.	.
4F 4fn	[4d [4b [4dd	.
=68	=68	=68
4EE	4d] 4b] 4dd]	.
4E 4fn	4d 4g#X 4cc	.
4E 4f	4d 4g# 4b	.
=69	=69	=69
4AA	4r	.
4.E 4.e	2c 2a 2cc	.
8AA	.	.
=70	=70	=70
4GG	4r	.
4.E-X 4.e-X	2c 2a 2cc	.
8GG	.	.
=71	=71	=71
8FF#XL	4r	.
8C#X	.	.
8D	4r	.
8E-XJ	.	.
4E- 4e-X	[4c [4a [4cc	.
=72	=72	=72
4DD	4c] 4a] 4cc]	.
4D 4e-X	4c 4f# 4b-X	.
4D 4e-	4c 4f# 4a	.
=73	=73	=73
4GGG 4GG	4r	.
4.D 4.B-X	4.d 4.g 4.dd	.
8D 8G	8d 8g 8b-X	.
=74	=74	=74
*^	*^	*
4D 4B-X	4rc	4rc	4d 4g 4dd	.
2D 2E-X 2G	4B-	2e-X 2g	4b-X	.
.	4c	.	4cc	.
*v	*v	*	*	*
*	*v	*v	*
=75	=75	=75
4GGG 4GG	4r	.
4.D 4.B-X	4.d 4.g 4.dd	.
8D 8G	8d 8g 8b-X	.
=76	=76	=76
*^	*^	*
4D 4B-X	4rc	4rc	4d 4g 4dd	.
2D 2E-X 2G	4B-	2e-X 2g	4b-X	.
.	4c	.	4cc	.
=77	=77	=77	=77	=77
4GGG 4GG	4rc	4rc	4raa	.
2D 2E-X 2G	4B-X	2e-X 2g	4b-X	.
.	4c	.	4cc	.
=78	=78	=78	=78	=78
4GGG 4GG	4rc	4rc	4raa	.
4D	2G 2B-X	2g 2b-X	4d 4dd	.
4E-X	.	.	4e-X 4ee-X	.
*v	*v	*	*	*
=79	=79	=79	=79
4GGG 4GG	4rc	4raa	.
4C#X 4Bn	2bn	4en 4een	.
4GG	.	4e#X 4ee#X	.
*	*v	*v	*
=80	=80	=80
4FF# 4C#X 4A#X	4f# 4a#X 4ff#	.
4FFF# 4FF#	4ff# 4fff#	.
4r	4r	.
=81||	=81||	=81||
*k[f#c#]	*k[f#c#]	*
4FF# 4F#	4r	.
*clefG2	*	*
4.e 4.g 4.b	4.gg 4.eee 4.ggg	.
8c# 8g 8b	8ee 8ccc# 8eee	.
=82	=82	=82
4e 4g 4b	4gg 4eee 4ggg	.
4c# 4e#X 4b	4ee#X 4ccc# 4eee#X	.
4d 4f# 4b	4ff# 4ddd 4fff#	.
*clefF4	*	*
=83	=83	=83
4FF# 4F#	4r	.
4.B 4.d 4.g	4.ddd 4.ggg	.
8B 8d 8g	8ddd 8ggg 8bbb	.
=84	=84	=84
[4c# 4g#X	4ccc# 4eee#X 4cccc#	.
4F# 4c#] 4f#	4aa#X 4fff#	.
4r	4r	.
=85	=85	=85
4FFF# 4FF#	4r	.
4.E 4.Gn 4.B	4.g 4.een 4.gg	.
8C# 8G 8B	8e 8cc# 8ee	.
=86	=86	=86
4E 4G 4B	4g 4ee 4gg	.
4C# 4E#X 4B	4e#X 4cc# 4ee#X	.
4D 4F# 4B	4f# 4dd 4ff#	.
=87	=87	=87
4FFF# 4FF#	4r	.
4.BB 4.D 4.G	4.d 4.g	.
8BB 8D 8G	8d 8g 8b	.
=88	=88	=88
2.C# 2.G#X	2.c# 2.e#X 2.cc#	.
=89	=89	=89
8FF# 8C# 8F#	8A#X 8f#	.
8r	8r	.
4r	4ff#	.
4r	4ee#X	.
=90	=90	=90
2.r	4een	.
.	4dd	.
.	4cc#	.
=91	=91	=91
*^	*	*
4BB	4rc	12bL	.
.	.	12cc#	.
.	.	12ddJ	.
8qBB\	.	.	.
4G 4A#X 4c#	8f#L	4cc#	.
.	8eJ	.	.
4F# 4B 4d	4rc	8.bL	.
.	.	16f#Jk	.
*v	*v	*	*
=92	=92	=92
.	8qa/	.
4BBB 4BB	8.gL	.
.	16dJk	.
4D 4G 4d	2g	.
4D 4G 4d	.	.
=93	=93	=93
4BBB 4BB	12f#L	.
.	12g	.
.	12f#J	.
4BB 4G 4A#X	12f#L	.
.	12e	.
.	12BJ	.
4BB 4F# 4B	4d	.
=94	=94	=94
4BBB 4BB	8.cnL	.
.	16GJk	.
4E 4e	4.c	.
4E 4e	.	.
.	8B	.
=95	=95	=95
4BB	4A#X	.
.	16qqc#X/LL	.
.	16qqe/	.
.	16qqg/	.
.	16qqa#X/	.
.	16qqcc#/JJ	.
4G 4A#X 4c# 4e	4.ff#	.
4G 4A# 4c# 4e	.	.
.	8ee	.
=96	=96	=96
4BB	24ddLL	.
.	24cc#	.
.	24b	.
.	24cc#	.
.	[24dd	.
.	[24bJJ 24dd_	.
4F# 4B 4d	2f# 2b] 2dd]	.
4F# 4B 4d	.	.
=97	=97	=97
4G 4B 4e	12bL 12ee	.
.	12dd	.
.	12cc#J	.
4r	12bL	.
.	12a#X	.
.	12bJ	.
4C# 4G 4B 4e#X	24cc#LL	.
.	24b	.
.	24cc#	.
.	24cc#J	.
.	12ccc#J	.
=98	=98	=98
*	*^	*
4F# 4c# 4en	8a#XL	12ccc#L	.
.	.	12aa#X	.
.	8bJ	.	.
.	.	12ggJ	.
4FFF# 4FF#	4a#	4ff#	.
4C# 4E 4F# 4A#X	4rc	4f#	.
*	*v	*v	*
=99	=99	=99
*^	*	*
4BB	4rc	12bL	.
.	.	12cc#	.
.	.	12ddJ	.
8qBB\	.	.	.
4G 4A#X 4c#	8f#L	4cc#	.
.	8eJ	.	.
4F# 4B 4d	4rc	8.bL	.
.	.	16f#Jk	.
*v	*v	*	*
=100	=100	=100
.	8qa/	.
4BBB 4BB	8.gL	.
.	16dJk	.
4D 4G 4d	2g	.
4D 4G 4d	.	.
=101	=101	=101
4BBB 4BB	12f#L	.
.	12g	.
.	12f#J	.
4BB 4G 4A#X	12f#L	.
.	12e	.
.	12BJ	.
4BB 4F# 4B	4d	.
=102	=102	=102
4BBB 4BB	8.cnL	.
.	16F#Jk	.
4D#X 4An 4d#X	4.c	.
4D# 4A 4d#	.	.
.	8B	.
=103	=103	=103
*	*^	*
*	*	*^	*
*	*	*	*^	*
4EE 4E	4r	4r	4rc	12A#XL	.
.	.	.	.	12B	.
.	.	.	.	12eJ	.
2CC# 2C#	4r	[4b\	12rc	12f#L	.
.	.	.	[6g	12g	.
.	.	.	.	[12eJ	.
.	[4B/	8b\]	8g]	8e]	.
.	.	8r	8rc	8raa	.
*	*	*	*v	*v	*
*	*	*v	*v	*
*	*v	*v	*
=104	=104	=104
2DD 2D	12BL]	.
.	12e#X	.
.	12f#J	.
.	12cc#L	.
.	12b	.
.	[12ff#J	.
4DD#X 4D#X	[4a 4ff#] 4bb	.
=105	=105	=105
*	*^	*
4EE 4E	12aL]	4r	.
.	12g	.	.
.	12f#J	.	.
4GGG 4GG	12enL	4b	.
.	12d#X	.	.
.	12eJ	.	.
4AAA [4AA	8.f#L	4G 4c# 4a	.
.	16eJk	.	.
*	*v	*v	*
=106	=106	=106
4DD 4AA]	4F# 4dn	.
4F# 4A 4f#	4d 4a 4dd	.
4r	4r	.
=107	=107	=107
12DL	2.r	.
12E	.	.
12FnJ	.	.
4E	.	.
8DL	.	.
8AAJ	.	.
=108	=108	=108
*^	*^	*
8.BB-XL	2.G#X	2.d	12b-XL	.
.	.	.	12ccn	.
.	.	.	12ddJ	.
16FFnJk	.	.	.	.
2BB-	.	.	4cc	.
.	.	.	8.b-L	.
.	.	.	16fnJk	.
*v	*v	*	*	*
=109	=109	=109	=109
8AAL 8A	2d	8fnL	.
8GGnJ 8Gn	.	8g	.
4FFn 4Fn	.	8a	.
.	.	8a#XJ	.
4FF 4BBn 4An	4d#X	8BL 8b	.
.	.	8AJ 8an	.
=110	=110	=110	=110
*^	*	*	*
4BB	8FFnL 8Fn	8AL 8d#X	8aL	.
.	8EEJ 8E	8G#XJ 8e	8g#X	.
2E	4fn	2dn 2g#	8a#X	.
.	.	.	8bJ	.
.	4e	.	4ee	.
*v	*v	*	*	*
*	*v	*v	*
=111	=111	=111
12AL	2.r	.
12B	.	.
12cnJ	.	.
4B	.	.
8.AL	.	.
16EJk	.	.
=112	=112	=112
*^	*^	*
8.FnL	2.d#X	2.a	12ffnL	.
.	.	.	12gg	.
.	.	.	12aaJ	.
16CnJk	.	.	.	.
2F	.	.	4gg	.
.	.	.	8.ffL	.
.	.	.	16ccnJk	.
*v	*v	*	*	*
=113	=113	=113	=113
8EL 8e	2a	8ccnL	.
8DnJ 8dn	.	8dd	.
4Cn 4cn	.	8ee	.
.	.	8ee#XJ	.
4C 4F#X 4en	4a#X	8f#L 8ff#	.
.	.	8eJ 8een	.
=114	=114	=114	=114
2.BB 2.Fn 2.B	8anL	2.d 2.dd	.
.	8ccn	.	.
.	8cc	.	.
.	8b	.	.
.	8b	.	.
.	8aJ	.	.
=115	=115	=115	=115
2BB 2E 2B	2g#X	8dL 8dd	.
.	.	8c#X 8cc#X	.
.	.	8d 8dd	.
.	.	8d#X 8dd#X	.
4BB-X 4E 4dn	4g#	8e 8ee	.
.	.	8dnJ 8ddn	.
=116	=116	=116	=116
2.AA 2.E-X 2.A	8gnL	2.cn 2.ccn	.
.	8b-X	.	.
.	8b-	.	.
.	8a	.	.
.	8a	.	.
.	8gJ	.	.
=117	=117	=117	=117
2AA 2D 2A	2f#	8cnL 8ccn	.
.	.	8Bn 8bn	.
.	.	8c 8cc	.
.	.	8c#X 8cc#X	.
4AA-X 4D 4cn	4f#	8d 8dd	.
.	.	8cnJ 8ccn	.
=118	=118	=118	=118
*^	*	*	*
[2GG [2D [2B	2rc	8rc	8e#XL 8b	.
.	.	4e#	8e# 8cc#X	.
.	.	.	8b 8dd	.
.	.	4b	8bJ 8een	.
8GG] 8D] 8B]	8rc	.	8ddL 8ee#X	.
[8FF# [8D	[8B	8rc	8ddJ	.
=119	=119	=119	=119	=119
8FF#] 8D]	8B]	8ff#L	4ff#	.
2G 2g	4c#	8b	.	.
.	.	8een	4een	.
.	4d	8g	.	.
.	.	8dd	8ddL	.
[8FF# [8E	[8cn	8ccJ	8ccnJ	.
=120	=120	=120	=120	=120
8FF#] 8E]	8c]	8eeL	4ee	.
2G 2g	4d	8g	.	.
.	.	8dd	4dd	.
.	4e	8eJ	.	.
.	.	8ccL	8ccnL	.
[8FF#	8rc	[8c#XJ	[8bJ	.
=121	=121	=121	=121	=121
2.FF#]	8.GL	2.c#]	8bL]	.
.	.	.	8b-XJ	.
.	16C#Jk	.	.	.
.	2G	.	8.aL	.
.	.	.	16eJk	.
.	.	.	8aL	.
.	.	.	[8gJ	.
=122	=122	=122	=122	=122
2.FF#	8.EL	8dL	2g]	.
.	.	8c#J	.	.
.	16BBJk	.	.	.
.	8EL	4B	.	.
.	8DJ	.	.	.
.	4C#	4A#X	4f# 4a#X	.
*v	*v	*	*	*
*	*v	*v	*
=123	=123	=123
4BB	12bL	.
.	12cc#	.
.	12ddJ	.
8qBB/	.	.
4G 4A#X 4e	4cc#	.
4F# 4B 4d	8.bL	.
.	16f#Jk	.
=124	=124	=124
.	8qa/	.
4BBB 4BB	8.gL	.
.	16dJk	.
4D 4G 4d	2g	.
4D 4G 4d	.	.
=125	=125	=125
4BBB 4BB	12f#L	.
.	12g	.
.	12f#J	.
4BB 4G 4A#X	12f#L	.
.	12e	.
.	12BJ	.
4BB 4F# 4B	4d	.
=126	=126	=126
4BBB 4BB	8.cnL	.
.	16GJk	.
4E 4e	4.c	.
4E 4e	.	.
.	8B	.
=127	=127	=127
4BB	4A#X	.
.	16qqc#X/LL	.
.	16qqe/	.
.	16qqg/	.
.	16qqa#X/	.
.	16qqcc#/JJ	.
4G 4A#X 4c# 4e	4.ff#	.
4G 4A# 4c# 4e	.	.
.	8ee	.
=128	=128	=128
4BB	24ddLL	.
.	24cc#	.
.	24b	.
.	24cc#	.
.	[24dd	.
.	[24bJJ 24dd_	.
4F# 4B 4d	2f# 2b] 2dd]	.
4F# 4B 4d	.	.
=129	=129	=129
4G 4B 4e	12bL 12ee	.
.	12dd	.
.	12cc#J	.
4r	12bL	.
.	12a#X	.
.	12bJ	.
4C# 4G 4B 4e#X	24cc#LL	.
.	24b	.
.	24cc#	.
.	24cc#J	.
.	12ccc#J	.
=130	=130	=130
4F# 4A#X 4f#	12ccc#L	.
.	12aa#X	.
.	12ggJ	.
4FFF# 4FF#	4ff#	.
4C# 4E 4F# 4A#	4f#	.
=131	=131	=131
4BB	12bL	.
.	12cc#	.
.	12ddJ	.
8qBB/	.	.
4G 4A#X 4e	4cc#	.
4F# 4B 4d	8.bL	.
.	16f#Jk	.
=132	=132	=132
.	8qa/	.
4BBB 4BB	8.gL	.
.	16dJk	.
4D 4G 4d	2g	.
4D 4G 4d	.	.
=133	=133	=133
4BBB 4BB	12f#L	.
.	12g	.
.	12f#J	.
4BB 4G 4A#X	12f#L	.
.	12e	.
.	12BJ	.
4BB 4F# 4B	4d	.
=134	=134	=134
4BBB 4BB	8.cnL	.
.	16F#Jk	.
4D#X 4An 4d#X	4.c	.
4D# 4A 4d#	.	.
.	8B	.
=135	=135	=135
*	*^	*
*	*	*^	*
*	*	*	*^	*
4EE 4E	4r	4r	4rc	12A#XL	.
.	.	.	.	12B	.
.	.	.	.	12eJ	.
2CC# 2C#	4r	[4b\	12rc	12f#L	.
.	.	.	[6g	12g	.
.	.	.	.	[12eJ	.
.	[4B/	8b\]	8g]	8e]	.
.	.	8r	8rc	8raa	.
*	*	*	*v	*v	*
*	*	*v	*v	*
*	*v	*v	*
=136	=136	=136
2DD 2D	12BL]	.
.	12e#X	.
.	12f#J	.
.	12cc#L	.
.	12b	.
.	[12ff#J	.
4DD#X 4D#X	[4an 4ff#] 4bb	.
=137	=137	=137
*	*^	*
4EE 4E	12aL]	4r	.
.	12g	.	.
.	12f#J	.	.
4..GG 4..G	12bL	2e	.
.	12a#X	.	.
.	12bJ	.	.
.	4a# 4cc#	.	.
16FF# 16F#	.	.	.
=138	=138	=138	=138
4BBB 4BB	4d 4b	4raa	.
4BB 4F# 4B	4b 4dd 4bb	4raa	.
4r	4r	[4an	.
*	*v	*v	*
=139	=139	=139
4BB	12aL]	.
.	12b	.
.	12ccnJ	.
4A 4cn 4f#	4cc	.
4A 4c 4f#	8bL	.
.	8aJ	.
=140	=140	=140
*^	*	*
4BB	4rc	8.gL	.
.	.	16cnJk	.
12EL	2e	4.g	.
12F#	.	.	.
12GJ	.	.	.
4G	.	.	.
.	.	8B	.
*v	*v	*	*
=141	=141	=141
4BB	4A#X	.
.	16qqc#X/LL	.
.	16qqe/	.
.	16qqg/	.
.	16qqa#X/	.
.	16qqcc#/JJ	.
4G 4A#X 4c# 4e	4.ff#	.
4G 4A# 4c# 4e	.	.
.	8ee	.
=142	=142	=142
4BB	24dd#XLL	.
.	24cc#	.
.	24b	.
.	24cc#	.
.	[24dd#	.
.	[24bJJ 24dd#_	.
4F# 4B 4d#X	2f# 2b] 2dd#]	.
4F# 4B 4d#	.	.
=143	=143	=143
4BB	12aL	.
.	12b	.
.	12ccnJ	.
4A 4cn 4f#	4cc	.
4A 4c 4f#	8bL	.
.	8aJ	.
=144	=144	=144
*^	*	*
4BB	4rc	8.gL	.
.	.	16cnJk	.
12EL	2e	4.g	.
12F#	.	.	.
12GJ	.	.	.
4G	.	.	.
.	.	8B	.
*v	*v	*	*
=145	=145	=145
4BB	4A#X	.
.	16qqc#X/LL	.
.	16qqe/	.
.	16qqg/	.
.	16qqa#X/	.
.	16qqcc#/JJ	.
4G 4A#X 4c# 4e	4.ff#	.
4G 4A# 4c# 4e	.	.
.	8ee	.
=146	=146	=146
*	*^	*
2.BB 2.G 2.cn	12eL	2.a#X 2.ee	.
.	12f#	.	.
.	12gJ	.	.
.	4g	.	.
.	8f#L	.	.
.	8eJ	.	.
*	*v	*v	*
=147	=147	=147
*^	*	*
*	*^	*	*
*	*	*^	*	*
[2.BBB/	8r	4rEE	8BBBL	[2.d#X [2.b [2.dd#X	.
.	[8FF#/	.	8FF#	.	.
.	2FF#/_	8rEE	8F#	.	.
.	.	[4.BB	8BB	.	.
.	.	.	[8F#	.	.
.	.	.	8F#J_ [8B	.	.
=148	=148	=148	=148	=148	=148
2.BBB/]	2.FF#/]	2.BB]	2.F#] 2.B] 2.f#	2.d#] 2.b] 2.dd#]	.
*	*	*v	*v	*	*
*	*v	*v	*	*
*v	*v	*	*
==	==	==
*-	*-	*-
!!!system-decoration: {(*)}
!!!ENC: Bryan Jacob Bell
!!!END: November 2021 to April 2022
!!!PED: Günter Philipp
!!!PTL: Ausgewählte Klavierwerke (Edition Peters)
